src/assets/img/grid_out.svg

<svg width="56" height="58" viewBox="0 0 56 58" fill="none" xmlns="http://www.w3.org/2000/svg">
<rect x="1.75" y="6.48047" width="48.5" height="48.5" rx="24.25" fill="white"/>
<path d="M32.1406 41.9805L29.25 26.3555H32.875V24.7148L28.4375 21.0117L27.7344 18.2305H24.2656L23.5781 21.0117L19.125 24.7148V26.3555H22.75L19.8594 41.9805H17.875V43.2305H34.125V41.9805H32.1406ZM22.6406 33.7773L22.9219 32.293L26 30.3398L29.0781 32.293L29.4531 34.3086L26.2812 36.2148L22.6406 33.7773ZM25.0937 36.918L21.6875 38.9648L22.4062 35.1211L25.0937 36.918ZM23.2344 30.6211L23.5781 28.793L24.8437 29.6055L23.2344 30.6211ZM27.1719 29.5898L28.4375 28.7773L28.7812 30.6055L27.1719 29.5898ZM29.6875 35.6211L30.2969 38.8867L27.4375 36.9805L29.6875 35.6211ZM26.7656 19.4805L27.0781 20.7305H24.9219L25.2344 19.4805H26.7656ZM24.3437 21.9805H27.6406L31.3906 25.1055H20.5938L24.3437 21.9805ZM27.9844 26.3555L28.1875 27.4648L26 28.8555L23.8125 27.4648L24.0156 26.3555H27.9844ZM21.375 40.6055L26.2344 37.6836L30.6094 40.6055L30.8594 41.9805H21.125L21.375 40.6055Z" fill="#A4ABB3"/>
<rect x="1.75" y="6.48047" width="48.5" height="48.5" rx="24.25" stroke="#A4ABB3" stroke-width="1.5"/>
<circle cx="44" cy="12.7305" r="10.0117" fill="white"/>
<path d="M44 23.2305C38.2103 23.2305 33.5 18.5202 33.5 12.7305C33.5 6.94077 38.2103 2.23047 44 2.23047C49.7897 2.23047 54.5 6.94077 54.5 12.7305C54.5 18.5202 49.7897 23.2305 44 23.2305ZM44 3.28047C38.7892 3.28047 34.55 7.51971 34.55 12.7305C34.55 17.9412 38.7892 22.1805 44 22.1805C49.2108 22.1805 53.45 17.9412 53.45 12.7305C53.45 7.51971 49.2108 3.28047 44 3.28047ZM43.0681 8.41234C43.0681 7.90047 43.4881 7.48047 44 7.48047C44.525 7.48047 44.9319 7.88734 44.9319 8.41234C44.9319 8.93734 44.525 9.34422 44 9.34422C43.4881 9.34422 43.0681 8.92422 43.0681 8.41234ZM43.3109 10.683H44.6891V17.9805H43.3109V10.683Z" fill="#A4ABB3"/>
<path d="M9 49.7305C9 49.4543 8.77614 49.2305 8.5 49.2305L4 49.2305C3.72386 49.2305 3.5 49.4543 3.5 49.7305C3.5 50.0066 3.72386 50.2305 4 50.2305L8 50.2305L8 54.2305C8 54.5066 8.22386 54.7305 8.5 54.7305C8.77614 54.7305 9 54.5066 9 54.2305L9 49.7305ZM1.35355 57.584L8.85355 50.084L8.14645 49.3769L0.646447 56.8769L1.35355 57.584Z" fill="#A4ABB3"/>
</svg>

<?xml version="1.0" encoding="utf-8"?>
<!-- Generator: Adobe Illustrator 28.3.0, SVG Export Plug-In . SVG Version: 6.00 Build 0)  -->
<svg version="1.2" baseProfile="tiny" id="Capa_1" xmlns="http://www.w3.org/2000/svg" xmlns:xlink="http://www.w3.org/1999/xlink"
	 x="0px" y="0px" viewBox="0 0 56 58" overflow="visible" xml:space="preserve">
<path fill="#FFFFFF" d="M26,6.5L26,6.5c13.4,0,24.2,10.9,24.2,24.2v0C50.2,44.1,39.4,55,26,55l0,0C12.6,55,1.8,44.1,1.8,30.7v0
	C1.8,17.3,12.6,6.5,26,6.5z"/>
<path fill="#A4ABB3" d="M32.1,42l-2.9-15.6h3.6v-1.6L28.4,21l-0.7-2.8h-3.5L23.6,21l-4.5,3.7v1.6h3.6L19.9,42h-2v1.2h16.2V42H32.1z
	 M22.6,33.8l0.3-1.5l3.1-2l3.1,2l0.4,2l-3.2,1.9L22.6,33.8z M25.1,36.9l-3.4,2l0.7-3.8L25.1,36.9z M23.2,30.6l0.3-1.8l1.3,0.8
	L23.2,30.6z M27.2,29.6l1.3-0.8l0.3,1.8L27.2,29.6z M29.7,35.6l0.6,3.3L27.4,37L29.7,35.6z M26.8,19.5l0.3,1.2h-2.2l0.3-1.2H26.8z
	 M24.3,22h3.3l3.8,3.1H20.6L24.3,22z M28,26.4l0.2,1.1L26,28.9l-2.2-1.4l0.2-1.1H28z M21.4,40.6l4.9-2.9l4.4,2.9l0.2,1.4h-9.7
	L21.4,40.6z"/>
<path fill="none" stroke="#A4ABB3" stroke-width="1.5" d="M26,6.5L26,6.5c13.4,0,24.2,10.9,24.2,24.2v0C50.2,44.1,39.4,55,26,55l0,0
	C12.6,55,1.8,44.1,1.8,30.7v0C1.8,17.3,12.6,6.5,26,6.5z"/>
<circle fill="#FFFFFF" cx="44" cy="12.7" r="10"/>
<path fill="#A4ABB3" d="M44,23.2c-5.8,0-10.5-4.7-10.5-10.5c0-5.8,4.7-10.5,10.5-10.5s10.5,4.7,10.5,10.5
	C54.5,18.5,49.8,23.2,44,23.2z M44,3.3c-5.2,0-9.5,4.2-9.5,9.5c0,5.2,4.2,9.4,9.5,9.4s9.5-4.2,9.5-9.4C53.5,7.5,49.2,3.3,44,3.3z
	 M43.1,8.4c0-0.5,0.4-0.9,0.9-0.9c0.5,0,0.9,0.4,0.9,0.9S44.5,9.3,44,9.3C43.5,9.3,43.1,8.9,43.1,8.4z M43.3,10.7h1.4V18h-1.4V10.7z
	"/>
<path fill="#A4ABB3" d="M9,49.7c0-0.3-0.2-0.5-0.5-0.5H4c-0.3,0-0.5,0.2-0.5,0.5c0,0.3,0.2,0.5,0.5,0.5h4v4c0,0.3,0.2,0.5,0.5,0.5
	S9,54.5,9,54.2V49.7z M1.4,57.6l7.5-7.5l-0.7-0.7l-7.5,7.5L1.4,57.6z"/>
</svg>
